src/symbolic/status/org.gnome.Shell.Extensions.GSConnect-symbolic.svg

<svg xmlns="http://www.w3.org/2000/svg" width="16" height="16" version="1.1">
 <path style="fill:#444444" d="M 7.5,0 A 7.5,7.5 0 0 0 0,7.5 7.5,7.5 0 0 0 7.5,15 7.5,7.5 0 0 0 15,7.5 7.5,7.5 0 0 0 14.974609,7 l -0.375,0 L 11,7 11,9 12.785156,9 A 5.5,5.5 0 0 1 7.5,13 5.5,5.5 0 0 1 2,7.5 5.5,5.5 0 0 1 7.5,2 5.5,5.5 0 0 1 11.736328,4 l 2.392578,0 A 7.5,7.5 0 0 0 7.5,0 Z M 7.41211,3 C 6.0313979,3 4.9121094,4.1192881 4.9121094,5.5 c 0,1.380712 1.1192885,2.5 2.4999996,2.5 0.828427,0 1.5,0.671573 1.5,1.5 0,0.828427 -0.671573,1.5 -1.5,1.5 C 6.7772077,10.999109 6.2116336,10.598592 6,10 l -1.0371094,0 c 0.2375756,1.163878 1.2613411,1.999871 2.4492184,2 1.380712,0 2.5,-1.119288 2.5,-2.5 0,-1.380712 -1.119288,-2.5 -2.5,-2.5 C 6.5836827,7 5.9121094,6.328427 5.9121094,5.5 5.9121094,4.6715729 6.5836827,4 7.412109,4 8.047011,4.000891 8.612585,4.4014079 8.824219,5 L 9.861328,5 C 9.623752,3.8361219 8.599987,3.0001286 7.412109,3 Z"/>
</svg>

<svg xmlns="http://www.w3.org/2000/svg" width="16" height="16"><path d="M7.5 0A7.5 7.5 0 0 0 0 7.5 7.5 7.5 0 0 0 7.5 15 7.5 7.5 0 0 0 15 7.5a7.5 7.5 0 0 0-.025-.5H11v2h1.785A5.5 5.5 0 0 1 7.5 13 5.5 5.5 0 0 1 2 7.5 5.5 5.5 0 0 1 7.5 2a5.5 5.5 0 0 1 4.236 2h2.393A7.5 7.5 0 0 0 7.5 0zm-.088 3a2.5 2.5 0 0 0 0 5A1.5 1.5 0 1 1 6 10H4.963a2.5 2.5 0 1 0 2.45-3 1.5 1.5 0 1 1 1.411-2h1.037a2.5 2.5 0 0 0-2.449-2z" fill="#444"/></svg>
